X:1
T:[ID 2-84]
T:[ID 2-84]
T:Bezeichnung standardisiert: Menuet [mit Trio] Men\"uet Con Trio 5.
T:Urheber unbekannt Datum in der hier transkribierten schriftlichen Quelle: 1767
C:Urheber unbekannt
C:Datum in der hier transkribierten schriftlichen Quelle: 1767
L:1/8
M:3/4
K:A
V:1 treble 
V:1
 A,2 A2 A2 | BG{F} E4 | A,2 B2 B2 | ec{B} A4 | E2 e2 e2 | fB a2 g2 | bg e2 ^d2 | e6 :: ed c2 e2 | %9
{e} d4 B2 | cA E2 d2 | BA E4 | A,2 A2 A2 | BE d2 c2 | fd c2 B2 |{B} A6 | x6 :| %17
[M:3/4]"^Trio" !fermata![ce][ce] [ce]2 f2 | [ce][ce] [ce]2 f2 | e2 (3dcB (3cBA |{B} A4 A2 | %21
 gg g2 a2 | gg g2 a2 | (3afd c2 B2 |{B} c6 :: gg g2 a2 | baaggf | ff f2 g2 | aggffe | ee e2 f2 | %30
 e2 (3gfe a2 | (3fed c2 B2 |{B} A6 :| %33

